Hatter-kde/actions/16/view-financial-account-delete.svg

<svg viewBox="0 0 16 16" xmlns="http://www.w3.org/2000/svg">
  <style type="text/css" id="current-color-scheme">
    .ColorScheme-Text {
      color:#363636;
    }
    .ColorScheme-NegativeText {
      color:#da4453;
    }
  </style>
<path
    d="m3 2v6h-2v1h8v-1h-5v-5h10v5h1v-6zm2 2v1h4v-1zm0 2v1h3v-1zm-4 4v4h8v-4zm5 1h2v2h-2zm-4 1h1v1h-1zm2 0h1v1h-1z"
    style="fill:currentColor;fill-opacity:1;stroke:none"
    class="ColorScheme-Text"
    />
<path
    d="M 10 4 L 10 5 L 13 5 L 13 4 L 10 4 z M 10.707031 9 L 10 9.7070312 L 11.792969 11.5 L 10 13.292969 L 10.707031 14 L 12.5 12.207031 L 14.292969 14 L 15 13.292969 L 13.207031 11.5 L 15 9.7070312 L 14.292969 9 L 12.5 10.792969 L 10.707031 9 z "
    style="fill:currentColor;fill-opacity:1;stroke:none"
    class="ColorScheme-NegativeText"
    />
</svg>

<?xml version="1.0" encoding="UTF-8"?>
<svg viewBox="0 0 16 16" xmlns="http://www.w3.org/2000/svg">
 <style id="current-color-scheme" type="text/css">.ColorScheme-Text {
      color:#363636;
    }
    .ColorScheme-NegativeText {
      color:#da4453;
    }</style>
 <path class="ColorScheme-Text" d="m3 2v6h-2v1h8v-1h-5v-5h10v5h1v-6zm2 2v1h4v-1zm0 2v1h3v-1zm-4 4v4h8v-4zm5 1h2v2h-2zm-4 1h1v1h-1zm2 0h1v1h-1z" fill="currentColor"/>
 <path class="ColorScheme-NegativeText" d="m10 4v1h3v-1h-3zm0.70703 5-0.70703 0.70703 1.793 1.793-1.793 1.793 0.70703 0.70703 1.793-1.793 1.793 1.793 0.70703-0.70703-1.793-1.793 1.793-1.793-0.70703-0.70703-1.793 1.793-1.793-1.793z" fill="currentColor"/>
</svg>
